X:1
T:Adonay sanctissime domine
T:Adonay sanctissime domine
T:Gaspar van Weerbeke c. 1445 - c. 1516 ed. & trans. P. Wing
T:O holiest Adonai, Lord God omnipotent, hear the prayers of Thy servants and give us the speech of contrition, and close not the mouths of those who sing to you, O Lord.
T:Ⓒ 2018 by CPDL. This edition can be fully distributed, duplicated, performed and recorded.
T:Ⓒ 2018 by CPDL. This edition can be fully distributed, duplicated, performed and recorded.
T:Ⓒ 2018 by CPDL. This edition can be fully distributed, duplicated, performed and recorded.
C:Gaspar van Weerbeke
Z:Ⓒ 2018 by CPDL. This edition can be fully distributed, duplicated, performed and recorded.
%%score [ 1 2 3 4 ]
L:1/8
M:2/2
K:G
V:1 treble nm="Soprano" snm="S."
V:2 treble nm="Alto" snm="A."
V:3 treble-8 nm="Tenor" snm="T."
V:4 bass nm="Bass" snm="B."
V:1
 z8 | A8 | c6 A2 | e4 edcB | A6 G=F | G8 | c8 | B4 A2 B2- | BAGF E2 G2 | A2 B4 c2 | d2 B4 e2 | %11
w: |A-|do- na-|* y * * *||||san- ctis- *|* * * * * si-|* me *||
 d2 B2 c2 B2- | B2 A4 ^G2 | A8 | z8 | z8 | z8 | z8 | z8 | z8 | z8 | z8 | z8 | z8 | z8 | z8 | z8 | %27
w: ||||||||||||||||
 c8 | c4 c4 | c8 | B4 A4 | B4 c4 | d6 cB | A2 G2 A4 | G8 | c8 | c4 c4- | c2 BA B4 | A4 c4 | %39
w: ex-|au- di|pre-|ces ser-|vo- *|rum * *|tu- * o-|rum|et|da no-|* * * bis|lo- cu-|
 B2 c4 BA | B4 A2 c2 | B2 c4 BA | G4 E3 F | GABc d2 e2- | e2 c4 B2 | c4 z4 | z8 | z8 | E6 F2 | %49
w: ti- o * *|nem pæ- *|ni- ten- * *|||* ti- *|ae,|||et *|
 G2 A2 B2 c2- | cB A4 ^G2 | A4 z2 A2- | A2 GF EFGA | B3 A F2 G2- | G2 FE DEFG | A3 G E2 =F2- | %56
w: ne * * clau-||das o-|* * * ra * * *|* * * ca-|* nen- * * * * *|* * * ti-|
 F2 ED CDE^F | G3 F D2 E2- | E2 DC B,4 | A,B,CD E2 F2 | G2 A2 B2 c2- | c2 BA G4 | A6 ^GF | %63
w: * * * um * * *|||* * * * te *|||Do- mi- *|
 !fermata!^G8 | A8 |] %65
w: |ne.|
V:2
 A,8 | C6 A,2 | E4 EDCB, | A,8 | z4 A,4 | B,8 | A,4 E2 F2 | G4 z2 D2- | D2 G4 E2 | F2 G4 FE | %10
w: A-|do- na-|* y * * *||san-|ctis-|si- * *|* me|||
 D2 G6 | G4 z2 G2- | GF D2 E4 | z8 | z8 | z8 | z8 | z8 | z8 | z8 | z8 | z8 | z8 | z8 | z8 | z8 | %26
w: ||||||||||||||||
 G8 | G4 G4 | G6 F2 | E2 D2 C2 B,A, | G,2 G2 E3 F | GFED C4 | B,6 G,2 | A,2 B,4 A,2 | B,4 E3 D | %35
w: ex-|au- di|pre- *||ces ser- vo- *|* * * * rum|tu- *|* o- *|rum et *|
 CB, A,4 G,F, | E,2 F,G, A,B,CD | E2 F2 G4 | z2 A4 GF | GFED CDEF | G4 F2 E2 | D2 E4 DC | %42
w: * * da * *|no- * * * * * *|bis * *|lo- * *|cu- * * * * * * *|* ti- o-|nem pæ- * *|
 B,2 G4 FE | E2 DC B,2 G2- | G2 =FE D4 | C4 z4 | z8 | z8 | C6 D2 | E2 F2 G2 E2- | E2 DC B,4 | %51
w: |ni- * * * ten-|* * * ti-|ae,|||et *|ne- * * clau-||
 A,4 z4 | A,3 B, C2 G,2- | G,A,B,C D2 z2 | G,3 A, B,2 F,2- | F,G,A,B, C2 z2 | =F,2- F,G, A,2 E,2- | %57
w: das|o- * * ra-||ca- * * nen-|* * ti- * um|te * * * *|
 E,F,G,A, B,2 G,2 | C4 z2 E2- | E2 C4 B,A, | B,2 A,2 G4- | G2 F2 E4 | C4 D4 | !fermata!E8 | E8 |] %65
w: |* Do-||||mi- *||ne.|
V:3
 z8 | z8 | A8 | c6 A2 | c4 d4 | e8 | e6 c2 | d4 c2 B2 | d4 e4 | c2 d2 e2 dc | B2 e4 dc | %11
w: ||A-|do- na-||y|san- ctis-||* si-|me * * * *||
 B4 e2 d2- | dc A2 B4 | A8 | c8 | c4 c4- | c2 BA B4 | A4 c4- | c4 c4 | c6 BA | B4 A2 c2- | %21
w: |||Do-|mi- ne|* * * De-|us, Do-|* mi-|ne * *|De- us om-|
 c2 BA B2 c2 | A2 c2 B2 A2- | A2 Bc G4 | EFGA Bc d2- | de c4 B2 | c8 | z4 e4 | e4 e4 | e8 | d4 c4 | %31
w: * * * ni- *|po- * * *||||tens,|ex-|au- di|pre-|ces ser-|
 B4 e4 | d4 B3 c | d2 e3 ^d/^c/ d2 | e8 | z8 | z8 | z8 | z8 | z8 | z8 | z8 | z8 | z8 | z8 | E6 F2 | %46
w: vo- *|rum tu- *|* o- * * *|rum|||||||||||et ne|
 G2 A2 B2 c2- | cB A4 ^G2 | A4 z4 | z8 | z8 | c6 BA | c4 z2 c2 | B6 AG | B4 z2 B2 | A6 G=F | %56
w: clau- * * *||das|||o- * *|ra ca-|nen- * *|* ti-|um * *|
 A4 z2 A2 | G6 FE | G4 z2 G2 | A2- AB c2 d2 | e2 c2 d2 e2- | e2 dc B4 | A8 | !fermata!B8 | A8 |] %65
w: * te||* Do-|mi- * * * *|||||ne.|
V:4
 z8 | z8 | z8 | A,8 | =F,4 F,4 | E,8 | z4 A,4 | G,4 A,2 G,2- | G,F,E,D, C,2 C2 | A,2 G,4 A,2 | %10
w: |||A-|do- na-|y|san-|ctis- * *|* * * * * si-|me * *|
 B,2 G,2 E,3 F, | G,4 C,2 G,2- | G,A, F,2 E,4 | =F,6 E,D, | (3C,2 D,2 E,2 A,,3 B,, | %15
w: ||||* * * Do- *|
 C,D, E,2 =F,2 A,2- | A,2 G,=F, G,4 | C3 B, A,G, A,2- | A,2 G,=F, E,2 F,2- | F,2 E,D, C,D,E,^F, | %20
w: * * mi- ne De-|* * * us,|Do- * * * mi-|* * * ne De-||
 G,4 z2 A,2- | A,2 G,F, G,2 A,2 | C2 B,A, G,2 A,2- | A,2 G,F, E,3 F, | G,A, G,2 D,2 =F,2- | %25
w: us om-|* * * ni- *|* * * * po-|||
 F,G, E,2 D,4 | C,8 | C,8 | C,4 C,4 | C,8 | G,4 A,4 | G,4 A,4 | B,4 G,4 | F,2 E,2 F,4 | E,8 | z8 | %36
w: |tens,|ex-|au- di|pre-|ces ser-|vo- *|rum tu-|o- * *|rum||
 z8 | z8 | z8 | z8 | z8 | z8 | z8 | z8 | z8 | C,6 D,2 | E,2 F,2 G,2 E,2- | E,2 D,C, B,,4 | %48
w: |||||||||et ne|clau- * * *||
 A,,4 z4 | z8 | z8 | A,3 G, E,2 =F,2- | F,2 E,D, C,D,E,^F, | G,3 F, D,2 E,2- | E,2 D,C, B,,C,D,E, | %55
w: das|||o- * * ra||ca- * * nen-|* * * * * ti- *|
 F,3 E, C,2 D,2- | D,2 C,B,, A,,B,,C,D, | E,3 D, B,,2 C,2- | C,2 B,,A,, E,4 | A,,2 A,3 G, F,2 | %60
w: um * * *||te * * Do-||mi- * * *|
 E,2 A,2 G,2 C,2- | C,2 D,2 E,4 | =F,8 | !fermata!E,8 | A,,8 |] %65
w: ||||ne.|

